X:655
T:Satisfaction
C:Henry Purcell
N:Air by Purcell for the dance "Satisfaction" by Fried de Metz Herman
L:1/4
S:Colin Hume's website,  colinhume.com  - chords can also be printed below the stave.
Q:1/2=108
M:4/4
K:G
P:A
D | "G"Gd BG | "D"d2 "G"B2 | "Am"ea "D"fd | "Em"g3/f/ e2 |\
"G"d3/c/ B/c/d | "Am"c3/B/ AG | "D"FGA/B/c/B/ | "D7"A2 D :|
P:B
D | "D"F/G/A FD | "G"G3/A/ B2 | "Em"G/A/B GE | "Am"A3/B/ c2 |\
"D"cd/c/ "Em"Be | "B7"^d3/e/ ff/g/ | "Em"a/g/f/e/ "B7"Be/^d/ | "Em"e3 e/f/ |
"C"ge "D"d3/c/ | "G"B3/c/ B/c/d | "C"E2 "Am"A/B/c | "D"F3 d |\
"G"B3 g | "Am"e3 c'/b/ | "D"ag/a/ dg/f/ | "G"g3 |]

